images/brands/planable.svg

<svg fill="none" height="180" viewBox="0 0 520 180" width="520" xmlns="http://www.w3.org/2000/svg" xmlns:xlink="http://www.w3.org/1999/xlink"><clipPath id="a"><path d="m46 53h427v95h-427z"/></clipPath><g clip-path="url(#a)"><path d="m61.1904 148c.9494-1.9 3.9164-6.769 6.7646-11.875 2.7296-4.631 5.3405-9.025 6.0526-10.45 3.2042-5.344 10.4435-5.106 16.0214-5.106h2.3735 5.1031l-12.3424 21.375c-2.1362 3.681-5.8152 5.818-9.9689 6.056h-3.9163z" fill="#fece6a"/><path d="m118.749 114.75 7.002-12.113h-13.411-9.968c-16.0218 0-21.1249 9.738-24.5666 16.269-.4747.95-.9494 1.663-1.1867 2.375-1.4242 2.375-2.3736 4.394-2.3736 4.394 3.2043-5.344 10.4436-5.106 16.0214-5.106h2.3736 5.1031 10.6808c4.154 0 8.07-2.257 10.325-5.819z" fill="#feae06"/><path d="m54.3074 53c.9494 1.9 3.9163 6.7687 6.7645 11.875 2.7296 4.6313 5.1032 9.2625 6.0526 10.6875 3.2043 5.3437-.7121 11.6375-3.679 16.5063-.4747.7125-.7121 1.4249-1.1868 1.9l-2.3735 4.3937-12.3424-21.375c-1.8989-3.6812-2.1362-8.075 0-11.6375l1.6614-3.4438z" fill="#89e5b8"/><path d="m71.3966 82.2125c-.4747-.7125-.9494-1.6625-1.4241-2.375-1.4241-2.375-2.7296-4.3938-2.7296-4.3938 3.2043 5.3438-.712 11.6375-3.6789 16.5063-.4748.7125-.7121 1.425-1.1868 1.9l-2.3736 4.3937-5.3404 9.7373c-2.1362 3.681-2.1362 8.075 0 11.638l7.0019 12.112 6.5273-11.637 5.1031-8.55c7.714-13.894 2.1362-22.8003-1.8989-29.3315z" fill="#3bd388"/><path d="m139.636 96.225c-2.136 0-8.07 0-13.648 0-5.34 0-10.443 0-12.105 0-6.052 0-9.731-6.5313-12.342-11.4-.475-.7125-.712-1.425-1.187-1.9l-2.7295-4.3938h24.8035c4.154 0 8.07 2.1375 10.206 5.8188l1.899 3.2063z" fill="#bfb0fb"/><path d="m82.0776 63.2125h-14.1225l6.7646 11.6375 5.1031 8.55c8.07 14.1313 18.9883 12.825 26.2272 12.825h2.73 5.103c-6.052 0-9.731-6.5312-12.342-11.4-.475-.7125-.712-1.425-1.187-1.9l-2.7297-4.3937-5.3404-9.5c-2.2549-3.4438-6.1712-5.8188-10.2063-5.8188z" fill="#947bf9"/><g fill="#3c3f4f"><path d="m172.628 78.7688h-10.918v55.6942h10.918v-19.238c2.136 2.731 6.527 5.106 12.343 5.106 12.817 0 20.412-9.5 20.412-21.3747 0-11.875-7.477-21.375-20.412-21.375-5.816 0-10.681 2.7312-12.343 4.8687zm-.474 20.1875c0-7.0063 4.391-11.4 11.155-11.4 6.765 0 11.156 5.1062 11.156 11.4 0 6.7687-4.154 11.6377-11.156 11.6377-6.883 0-11.155-4.869-11.155-11.6377z"/><path d="m209.774 119.381h11.156v-55.456h-11.156z"/><path d="m257.601 119.381h10.918v-40.6123h-10.918v4.1563c-2.136-2.7313-6.527-5.1063-12.342-5.1063-12.817 0-20.413 9.5-20.413 21.375 0 11.8753 7.477 21.3753 20.413 21.3753 5.815 0 10.681-2.732 12.342-4.869zm.475-20.4248c0 7.0058-4.391 11.3998-11.156 11.3998-6.764 0-11.156-5.106-11.156-11.3998 0-6.7687 4.154-11.6375 11.156-11.6375 6.765.2375 11.156 4.9875 11.156 11.6375z"/><path d="m296.408 77.8187c-3.679 0-8.307 1.6625-10.918 4.3938v-3.4438h-10.918v40.8503h10.918v-21.6128c-.237-9.025 4.866-10.6875 7.714-10.6875 4.391 0 7.714 1.9 7.714 8.3125v24.1058h11.393v-24.2245c.119-10.6875-4.035-17.6938-15.903-17.6938z"/><path d="m349.576 119.381h10.918v-40.6123h-10.918v4.1563c-2.137-2.7313-6.528-5.1063-12.343-5.1063-12.817 0-20.412 9.5-20.412 21.375 0 11.8753 7.476 21.3753 20.412 21.3753 5.815 0 10.681-2.732 12.343-4.869zm.237-20.4248c0 7.0058-4.391 11.3998-11.156 11.3998-6.764 0-11.155-5.106-11.155-11.3998 0-6.7687 4.153-11.6375 11.155-11.6375 7.121.2375 11.156 4.9875 11.156 11.6375z"/><path d="m377.584 119.381v-4.156c1.661 2.138 6.527 4.869 12.342 4.869 12.817 0 20.413-9.5 20.413-21.3752 0-11.875-7.477-21.375-20.413-21.375-5.815 0-10.206 2.375-12.342 5.1062v-18.525h-10.918v55.694h10.918zm-.475-20.4247c0-6.7688 4.391-11.6375 11.156-11.6375 7.002 0 11.155 4.8687 11.155 11.6375 0 6.5317-4.391 11.3997-11.155 11.3997-6.884.238-11.156-4.156-11.156-11.3997z"/><path d="m414.729 119.381h11.156v-55.456h-11.156z"/><path d="m451.875 120.569c11.868 0 17.446-7.244 18.989-9.5l-8.545-4.869c-1.187 1.425-4.391 4.869-10.444 4.869-2.136 0-9.731-.713-11.155-7.482h32.042s.238-1.9.238-5.1058c-.475-13.0625-10.919-20.1875-21.362-20.1875-7.477 0-22.074 4.3938-22.074 21.1375.237 16.5058 14.241 21.1378 22.311 21.1378zm0-32.7753c5.578 0 9.257 4.1563 9.732 7.7188h-20.413c.238-4.1563 4.035-7.7188 10.681-7.7188z"/></g></g></svg>

<svg width="520" height="180" viewBox="0 0 520 180" fill="none" xmlns="http://www.w3.org/2000/svg">
<g clip-path="url(#clip0_248_4906)">
<path d="M61.1904 148C62.1398 146.1 65.1068 141.231 67.955 136.125C70.6846 131.494 73.2955 127.1 74.0076 125.675C77.2118 120.331 84.4511 120.569 90.029 120.569C90.741 120.569 91.6904 120.569 92.4025 120.569H97.5056L85.1632 141.944C83.027 145.625 79.348 147.762 75.1943 148H71.278H61.1904Z" fill="#FECE6A"/>
<path d="M118.749 114.75L125.751 102.637H112.34H102.372C86.3502 102.637 81.2471 112.375 77.8054 118.906C77.3307 119.856 76.856 120.569 76.6187 121.281C75.1945 123.656 74.2451 125.675 74.2451 125.675C77.4494 120.331 84.6887 120.569 90.2665 120.569C90.9786 120.569 91.928 120.569 92.6401 120.569H97.7432H108.424C112.578 120.569 116.494 118.312 118.749 114.75Z" fill="#FEAE06"/>
<path d="M54.3074 53C55.2568 54.9 58.2237 59.7687 61.0719 64.875C63.8015 69.5063 66.1751 74.1375 67.1245 75.5625C70.3288 80.9062 66.4124 87.2 63.4455 92.0688C62.9708 92.7813 62.7334 93.4937 62.2587 93.9688L59.8852 98.3625L47.5428 76.9875C45.6439 73.3063 45.4066 68.9125 47.5428 65.35L49.2042 61.9062L54.3074 53Z" fill="#89E5B8"/>
<path d="M71.3966 82.2125C70.9219 81.5 70.4472 80.55 69.9725 79.8375C68.5484 77.4625 67.2429 75.4437 67.2429 75.4437C70.4472 80.7875 66.5309 87.0812 63.564 91.95C63.0892 92.6625 62.8519 93.375 62.3772 93.85L60.0036 98.2437L54.6632 107.981C52.527 111.662 52.527 116.056 54.6632 119.619L61.6651 131.731L68.1924 120.094L73.2955 111.544C81.0095 97.65 75.4317 88.7437 71.3966 82.2125Z" fill="#3BD388"/>
<path d="M139.636 96.225C137.5 96.225 131.566 96.225 125.988 96.225C120.648 96.225 115.545 96.225 113.883 96.225C107.831 96.225 104.152 89.6937 101.541 84.825C101.066 84.1125 100.829 83.4 100.354 82.925L97.6245 78.5312H122.428C126.582 78.5312 130.498 80.6687 132.634 84.35L134.533 87.5563L139.636 96.225Z" fill="#BFB0FB"/>
<path d="M82.0776 63.2125H67.9551L74.7197 74.85L79.8228 83.4C87.8928 97.5313 98.8111 96.225 106.05 96.225C107 96.225 107.949 96.225 108.78 96.225C111.747 96.225 113.883 96.225 113.883 96.225C107.831 96.225 104.152 89.6938 101.541 84.825C101.066 84.1125 100.829 83.4 100.354 82.925L97.6243 78.5313L92.2839 69.0313C90.029 65.5875 86.1127 63.2125 82.0776 63.2125Z" fill="#947BF9"/>
<path d="M172.628 78.7688H161.71V134.463H172.628V115.225C174.764 117.956 179.155 120.331 184.971 120.331C197.788 120.331 205.383 110.831 205.383 98.9563C205.383 87.0813 197.906 77.5813 184.971 77.5813C179.155 77.5813 174.29 80.3125 172.628 82.45V78.7688ZM172.154 98.9563C172.154 91.95 176.545 87.5563 183.309 87.5563C190.074 87.5563 194.465 92.6625 194.465 98.9563C194.465 105.725 190.311 110.594 183.309 110.594C176.426 110.594 172.154 105.725 172.154 98.9563Z" fill="#3C3F4F"/>
<path d="M209.774 119.381H220.93V63.925H209.774V119.381Z" fill="#3C3F4F"/>
<path d="M257.601 119.381H268.519V78.7687H257.601V82.925C255.465 80.1937 251.074 77.8187 245.259 77.8187C232.442 77.8187 224.846 87.3187 224.846 99.1937C224.846 111.069 232.323 120.569 245.259 120.569C251.074 120.569 255.94 117.837 257.601 115.7V119.381ZM258.076 98.9562C258.076 105.962 253.685 110.356 246.92 110.356C240.156 110.356 235.764 105.25 235.764 98.9562C235.764 92.1875 239.918 87.3187 246.92 87.3187C253.685 87.5562 258.076 92.3062 258.076 98.9562Z" fill="#3C3F4F"/>
<path d="M296.408 77.8187C292.729 77.8187 288.101 79.4812 285.49 82.2125V78.7687H274.572V119.619H285.49V98.0062C285.253 88.9812 290.356 87.3187 293.204 87.3187C297.595 87.3187 300.918 89.2187 300.918 95.6312V119.737H312.311V95.5125C312.43 84.825 308.276 77.8187 296.408 77.8187Z" fill="#3C3F4F"/>
<path d="M349.576 119.381H360.494V78.7687H349.576V82.925C347.439 80.1937 343.048 77.8187 337.233 77.8187C324.416 77.8187 316.821 87.3187 316.821 99.1937C316.821 111.069 324.297 120.569 337.233 120.569C343.048 120.569 347.914 117.837 349.576 115.7V119.381ZM349.813 98.9562C349.813 105.962 345.422 110.356 338.657 110.356C331.893 110.356 327.502 105.25 327.502 98.9562C327.502 92.1875 331.655 87.3187 338.657 87.3187C345.778 87.5562 349.813 92.3062 349.813 98.9562Z" fill="#3C3F4F"/>
<path d="M377.584 119.381V115.225C379.245 117.363 384.111 120.094 389.926 120.094C402.743 120.094 410.339 110.594 410.339 98.7188C410.339 86.8438 402.862 77.3438 389.926 77.3438C384.111 77.3438 379.72 79.7188 377.584 82.45V63.925H366.666V119.619H377.584V119.381ZM377.109 98.9563C377.109 92.1875 381.5 87.3188 388.265 87.3188C395.267 87.3188 399.42 92.1875 399.42 98.9563C399.42 105.488 395.029 110.356 388.265 110.356C381.381 110.594 377.109 106.2 377.109 98.9563Z" fill="#3C3F4F"/>
<path d="M414.729 119.381H425.885V63.925H414.729V119.381Z" fill="#3C3F4F"/>
<path d="M451.875 120.569C463.743 120.569 469.321 113.325 470.864 111.069L462.319 106.2C461.132 107.625 457.928 111.069 451.875 111.069C449.739 111.069 442.144 110.356 440.72 103.587H472.762C472.762 103.587 473 101.687 473 98.4812C472.525 85.4187 462.081 78.2937 451.638 78.2937C444.161 78.2937 429.564 82.6875 429.564 99.4312C429.801 115.937 443.805 120.569 451.875 120.569ZM451.875 87.7937C457.453 87.7937 461.132 91.95 461.607 95.5125H441.194C441.432 91.3562 445.229 87.7937 451.875 87.7937Z" fill="#3C3F4F"/>
</g>
<defs>
<clipPath id="clip0_248_4906">
<rect width="427" height="95" fill="white" transform="translate(46 53)"/>
</clipPath>
</defs>
</svg>
